/* XPM */
static char *_7616b136fb24d09b600051e1304d6e3QqZ6d7V9o91TNAdR[] = {
/* columns rows colors chars-per-pixel */
"64 64 177 2 ",
"   c black",
".  c #D41E3C",
"X  c #F9FFB9",
"o  c #D41C3B",
"O  c #D41B3A",
"+  c #9A0C3E",
"@  c #D6A08E",
"#  c #D31A3A",
"$  c #332521",
"%  c #FAFFBC",
"&  c #D31839",
"*  c #DE565B",
"=  c #33060E",
"-  c #D62942",
";  c #D9253D",
":  c #F1CD9C",
">  c #F1C397",
",  c #F3C599",
"<  c #DB4451",
"1  c #99093C",
"2  c #D61B3B",
"3  c #F3DBA5",
"4  c #D81E3D",
"5  c #E8B794",
"6  c #D3998E",
"7  c #DD4B55",
"8  c #220409",
"9  c #090806",
"0  c #261A15",
"q  c #DC1D3D",
"w  c #A3162E",
"e  c #EAB896",
"r  c #D41638",
"t  c #ECBB96",
"y  c #F9F7B4",
"u  c #CF968C",
"i  c #050102",
"p  c #E7B494",
"a  c #EA9E83",
"s  c #BE163C",
"d  c #CD5350",
"f  c #180009",
"g  c #FEFFBF",
"h  c #C9173A",
"j  c #DFA992",
"k  c #DCA790",
"l  c #E1343F",
"z  c #D95F50",
"x  c #2A201B",
"c  c #AC2444",
"v  c #A14E40",
"b  c #D7203C",
"n  c #26040B",
"m  c #F6C79A",
"M  c #341914",
"N  c #E3B291",
"B  c #DA3B43",
"V  c #EA7554",
"C  c #AE2F4E",
"Z  c #DC9B82",
"A  c #B21832",
"S  c #090103",
"D  c #781021",
"F  c #5A0F1B",
"G  c #A67C6E",
"H  c #E4AE94",
"J  c #EDC097",
"K  c #EB473F",
"L  c #E48070",
"P  c #7F0A32",
"I  c #CB1B3A",
"U  c #9D716A",
"Y  c #765450",
"T  c #B28D72",
"R  c #3A2C23",
"E  c #B2123C",
"W  c #D79C91",
"Q  c #F0B388",
"!  c #D59D8E",
"~  c #A60F3D",
"^  c #D83241",
"/  c #A1766D",
"(  c #F7A05D",
")  c #F1995B",
"_  c #9E3B44",
"`  c #A21843",
"'  c #AE123D",
"]  c #E58257",
"[  c #523233",
"{  c #221718",
"}  c #D9A38F",
"|  c #DEAD8D",
" . c #BB837C",
".. c #CB9187",
"X. c #EEA066",
"o. c #C7A07D",
"O. c #A3112B",
"+. c #311512",
"@. c #E49663",
"#. c #C38A86",
"$. c #CE7571",
"%. c #282B1F",
"&. c #F9D2A0",
"*. c #24110E",
"=. c #B27B79",
"-. c #EAA888",
";. c #F3BC8A",
":. c #E63D3D",
">. c #DC4949",
",. c #F6AB6A",
"<. c #CC864D",
"1. c #E86754",
"2. c #EF8756",
"3. c #B6796C",
"4. c #63392C",
"5. c #383225",
"6. c #C09878",
"7. c #B03B54",
"8. c #946562",
"9. c #624B3F",
"0. c #B58878",
"q. c #A92B4C",
"w. c #E1A584",
"e. c #D34348",
"r. c #D89581",
"t. c #FBE6AB",
"y. c #F3905A",
"u. c #B0152F",
"i. c #DD8A62",
"p. c #B56046",
"a. c #855558",
"s. c #AB7072",
"d. c #886E55",
"f. c #550421",
"g. c #774B53",
"h. c #160D10",
"j. c #8B5B34",
"k. c #A54F40",
"l. c #79392F",
"z. c #FBA761",
"x. c #770D20",
"c. c #E78F57",
"v. c #570723",
"b. c #42031A",
"n. c #E04351",
"m. c #BD7D47",
"M. c #B42842",
"N. c #B9454B",
"B. c #DF7356",
"V. c #D13743",
"C. c #D87B61",
"Z. c #EE8255",
"A. c #D5815D",
"S. c #F5FBB5",
"D. c #B9A079",
"F. c #BCB987",
"G. c #950A3A",
"H. c #CED499",
"J. c #D1DA9D",
"K. c #A12432",
"L. c #BB4055",
"P. c #3A3B2A",
"I. c #D34B55",
"U. c #C05F66",
"Y. c #FACB9D",
"T. c #6B4729",
"R. c #E5594B",
"E. c #EF5A48",
"W. c #8D956B",
"Q. c #B64D4E",
"!. c #B4273A",
"~. c #BD3645",
"^. c #8C9068",
"/. c #1E1816",
"(. c #6D7352",
"). c #6B6E4F",
"_. c #ECF4B0",
/* pixels */
"                                                                                                                                ",
"                                                                                                                                ",
"                                                                                                                                ",
"                                                                                                                                ",
"                                                                                                                                ",
"                                                                                                                                ",
"                                                                                                                                ",
"                                                                                                                                ",
"                                                                                                                                ",
"                                                                                                                                ",
"                                                                                                                                ",
"                                              S n = = = = = = = = n S                                                           ",
"                                              8 D w w w w w w w O.x.8                                                           ",
"                                          i 8 F A q q 4 4 b ; l 7 N.F 8 i                                                       ",
"                                          8 D A I 4 4 4 4 ; l 1.Q w.N.x.8                                                       ",
"                                      S 8 F A q 4 . . b ; l :.V ;.Q 7 u.F 8 i                                                   ",
"                                      n D A I 4 . . . ; :.K K E.V 1.l I A D 8                                                   ",
"                                      = w q 2 O O # # ; l K K K :.l ; 4 q !.4.%.9                                               ",
"                                      = w q 2 & & & & o ; l K K l ; . o 2 I.o.W.%.                                              ",
"                                  S 8 F u.- < * * * * < - b l :.; o . O & * &.J.(.%.9                                           ",
"                                  n D u.h < a : : : : a < & ; ; b . . O & * : S.J.^.%.                                          ",
"                                  = O.; n.L 3 % % % % 3 L < - o . . . O & * : g g H.).5.5.x 9                                   ",
"                                  = O.n.a 3 y % X X % y 3 a < # O . . O & * : % g _.H.F.D.d.x                                   ",
"                                i +._ L 3 % X X X X X % % : * & O . . O # < a 3 y % g g t.o.4.= = n S                           ",
"                                  5.6.3 y X X X X X X X % : * & O . . . o - < L 3 % g g % J Q.O.w D 8                           ",
"                                  P.F.X X X X X X X X X % : * & O . . . . # r < a : : : : a 7 q q A F 8 S                       ",
"                                  5.D.t.y X X X X X X % % : * & O . . . . o # - < * * * * 7 - 4 4 I A D n                       ",
"                              i f [ 6.&.y X X X X X X y 3 a < # O . . . . . . o # & & & & # o . . 4 q w =                       ",
"                              f f._ r.3 y X X X X X % 3 L < - o . . . . . . . . O O O O O O . . . 4 q w =                       ",
"                          i f b.P C $.N 3 y X X % y 3 a < r # . . . . . . . . . . . . . . . . . o b - K.=                       ",
"                          f f.P G.` q.U.H t.S.% % 3 L < - # o . . . . . . . . . . . . . . . . o # - >._ +.                      ",
"                      9 x [ _ C ` 1 1 q.$.w.J : : a < r # . . . O O . . . . . . . . . . . o O ; ^ >.z k.M                       ",
"                      x d.6.Z $.C 1 1 ` q.L.I.* * < - # o . . o # # o . . . . . . . . . . # # ^ 1.Z.B.k.M                       ",
"                  i f [ 6.&.&.Z 7.1 + + 1 ~ h & h h o . . . o - 7 7 - o . . . . o o o . - ^ B R.y.@.p.l.*.                      ",
"                  f f._ Z &.&.Z 7.1 + + + ~ h h E E I b . O # 7 -.-.7 # O . . o O # # - e.z V y.( <.4.*.S                       ",
"                  n P C $.Z Z $.C 1 + + + ~ s s ' ' s I . o # 7 -.-.7 & # . - ^ B B B >.1.] ( X.<.j.0                           ",
"                  n P ` C 7.7.C ` + + + + + ~ E s s ' E I . o - 7 7 - # # - e.z V Z.Z.2.y.( z.<.T.0 9                           ",
"                  f v.P G.1 1 1 + + + + + + + ~ s s ' ' s I o O & o - ^ B >.z ] ) ( ) c.<.m.m.j.0                               ",
"                  i f b.P + 1 1 + + + + + + + + ~ ' s s ' E h # & - e.z V 2.c.) ( ) ] p.4.$ $ 0 9                               ",
"                      f v.P ` c c c c c c c c c C ~.B V.M.M.V.B ^ B z ] ) z.,.,.,.X.L v +.  i                                   ",
"                      i f F _ d d d d d d d d z B.] Z.V d d V V z z ] ) ( ,.Q ;.;.Q r.8.x                                       ",
"                          { l.k.k.v v v v v v p.A.@.X.@.C.C.i.i.A.i.X.X.@.@.Q , > t H / $                                       ",
"                          9 *.M M M M M M +.+.R a.3...Z r. .s.3.Z Q ;.w.3.3.| , > > J T R                                       ",
"                                          i /.[ a.s.#.6 6 #.s.=.| m , |  .=.} t J , m o.9.{ 9                                   ",
"                                          0 Y /  .#...u u ..#...p , > t | } @ k t > , N 0.Y 0                                   ",
"                                          $ / W 6 u u 6 @ @ 6 } 5 > > > , e @ @ 5 J t p H G $                                   ",
"                                          $ / W 6 u u ! N N @ @ 5 > > > > e @ @ 5 t k j e T R                                   ",
"                                          $ U 6 6 6 ! k p H ! @ 5 > > > > 5 @ @ 5 t k j e T R                                   ",
"                                          $ U 6 6 @ N p k ! u @ 5 > > > > 5 @ @ 5 J t p H G $                                   ",
"                                          x 8...u @ N p k ! u @ 5 > > > > e @ @ 5 , m N 0.Y 0                                   ",
"                                          { g.=.#.6 @ k p H ! @ 5 > > > , e @ @ 5 m Y.o.9.{ 9                                   ",
"                                          h.[ a. .6 6 @ p 5 j j p t t 5 | k } j p N o.d.x                                       ",
"                                          i h.[ G W W W } j e e j } k u =. .j t H 0.9.x 9                                       ",
"                                              0 Y / / U U G T T G U U 8.g.Y G T G Y {                                           ",
"                                              9 0 $ $ $ $ $ R R $ $ $ x { 0 $ R $ 0 9                                           ",
"                                                                                                                                ",
"                                                                                                                                ",
"                                                                                                                                ",
"                                                                                                                                ",
"                                                                                                                                ",
"                                                                                                                                ",
"                                                                                                                                ",
"                                                                                                                                ",
"                                                                                                                                "
};
