/* XPM */
static char *b73f90f75d954ebce6d57de13add9889o47fR0BJWOaF9DnV[] = {
/* columns rows colors chars-per-pixel */
"64 64 203 2 ",
"   c black",
".  c #FED4E8",
"X  c #9CEECD",
"o  c #93EDC9",
"O  c #CAC0E2",
"+  c #C1B6DC",
"@  c #CDC4E4",
"#  c #FED2E6",
"$  c #B3F3D9",
"%  c #A0EFCF",
"&  c #C5BADE",
"*  c #C7BCDF",
"=  c #A7F0D3",
"-  c #B0F3D8",
";  c #A3EFD0",
":  c #AAF0D4",
">  c #D6CFE9",
",  c #F3C5E1",
"<  c #ACF2D5",
"1  c #060606",
"2  c #90ECC8",
"3  c #FBCCE5",
"4  c #AFF2D6",
"5  c #CBC3E2",
"6  c #0C0C0D",
"7  c #97EECB",
"8  c #C4B8DD",
"9  c #EDC1DE",
"0  c #EBBFDD",
"q  c #B9F5DD",
"w  c #B7F4DB",
"e  c #C8BFDF",
"r  c #F5C8E2",
"t  c #F7CBE4",
"y  c #B3F4D9",
"u  c #CED8E4",
"i  c #FAC9E4",
"p  c #DAD4ED",
"a  c #605E69",
"s  c #C9BDE1",
"d  c #EDBDDC",
"f  c #FECFE4",
"g  c #EDC4E1",
"h  c #F3C1DE",
"j  c #85D7E2",
"k  c #F0C9E4",
"l  c #F7C5E1",
"z  c #86DCD6",
"x  c #B7E4DB",
"c  c #D2CAE7",
"v  c #FBCEE6",
"b  c #FAD8EA",
"n  c #FAD1E7",
"m  c #E4B5D7",
"M  c #E1ACD2",
"N  c #BFF5DF",
"B  c #ADA9B8",
"V  c #C6B6DB",
"C  c #C3F4E2",
"Z  c #EABCDD",
"A  c #D0C7E6",
"S  c #E5BADB",
"D  c #E9B7D9",
"F  c #BCAFD8",
"G  c #BDB3DA",
"H  c #96DEE2",
"J  c #202224",
"K  c #C6CCDF",
"L  c #F4EEF3",
"P  c #EAB9DA",
"I  c #E8C2E1",
"U  c #B9ACD7",
"Y  c #DDAFD4",
"T  c #F6CEE5",
"R  c #5E5A67",
"E  c #D0CDE7",
"W  c #F2BFDD",
"Q  c #8CDAE1",
"!  c #BBF4DC",
"~  c #5E96B7",
"^  c #669FAB",
"/  c #CAB9DC",
"(  c #E7C6E3",
")  c #F8F1F8",
"_  c #E3B2D6",
"`  c #EEE6ED",
"'  c #679BB6",
"]  c #AFEDDF",
"[  c #9DD5F5",
"{  c #ADE0D4",
"}  c #AAA4B6",
"|  c #C3B2D8",
" . c #B8ECDB",
".. c #C1BADB",
"X. c #B4A7D3",
"o. c #86CBF2",
"O. c #64616C",
"+. c #7EC8F4",
"@. c #8ECFF5",
"#. c #FDD7E9",
"$. c #AFA0CE",
"%. c #BACCEA",
"&. c #B5AAD5",
"*. c #BDC0E3",
"=. c #A9C7E7",
"-. c #B2C0E5",
";. c #99EDCB",
":. c #A39FAD",
">. c #B2E3D7",
",. c #68656F",
"<. c #C8D1E1",
"1. c #C6F6E3",
"2. c #F0CFE6",
"3. c #53535E",
"4. c #F6D2E9",
"5. c #C3D0EC",
"6. c #A999CD",
"7. c #B0CFED",
"8. c #A7C7D6",
"9. c #CBABD5",
"0. c #EAEAF0",
"q. c #ADDDF8",
"w. c #BED7F1",
"e. c #9595A0",
"r. c #77D5D9",
"t. c #131314",
"y. c #DFD7EF",
"u. c #C8C7E3",
"i. c #F4DEED",
"p. c #D8B8DB",
"a. c #DBE6F0",
"s. c #DCB2D5",
"d. c #9FBFD6",
"f. c #BCC5E5",
"g. c #E2B0D5",
"h. c #79C6F3",
"j. c #C3BEDF",
"k. c #5D9EA2",
"l. c #19181A",
"z. c #F3F4F8",
"x. c #9892A9",
"c. c #CED2E6",
"v. c #B8D2E0",
"b. c #DBDFEF",
"n. c #A6A1B4",
"m. c #87D3E9",
"M. c #D2A3CF",
"N. c #CBB2D6",
"B. c #9C99A4",
"V. c #BDE8DE",
"C. c #C8EDE3",
"Z. c #313337",
"A. c #BCB8CC",
"S. c #F9DAEA",
"D. c #787481",
"F. c #8A8496",
"G. c #B7B2C7",
"H. c #AFA3D3",
"J. c #B0EFD6",
"K. c #94B7CC",
"L. c #ECD9EA",
"P. c #B6BBDA",
"I. c #91C6C9",
"U. c #A6D0DB",
"Y. c #BCBAE1",
"T. c #90DFD9",
"R. c #97D3F4",
"E. c #39535C",
"W. c #C6C4D7",
"Q. c #BEE3F7",
"!. c #908C9F",
"~. c #7DD8D9",
"^. c #E0CDE4",
"/. c #B4D8DD",
"(. c #AEAEC3",
"). c #45434B",
"_. c #BBB2D1",
"`. c #99B3DF",
"'. c #C9DDF1",
"]. c #B7C9D9",
"[. c #A9BCD3",
"{. c #9BC8DF",
"}. c #698393",
"|. c #7AC4C2",
" X c #74C3F2",
".X c #73C3F4",
"XX c #406667",
"oX c #6F6C7A",
"OX c #B1E3EC",
"+X c #A1D9EE",
"@X c #A2DEE7",
"#X c #ABE6D4",
"$X c #95C1D5",
"%X c #AFAFDB",
"&X c #DBC4E4",
"*X c #99CBEA",
"=X c #70AFD2",
"-X c #D3E0E7",
";X c #5A8B89",
":X c #BDAAD4",
">X c #EEECF1",
",X c #D4BFDB",
"<X c #BDDEEF",
/* pixels */
"                                                      l.3.e.B B (.G.B n.F.).t.                                                  ",
"                                                6 Z.D.n...5 c > y.c @ + G _.x.O.J                                               ",
"                                              Z.F._.@ O G &.&.F > U $.6.6.H.s O n.3.6                                           ",
"                                          1 R G.* O s F &.+ 8 & e G &.$.$.6.$.5 > * F.J                                         ",
"                                        6 D...G X.G c F &.+ E c.E E *.G 8 e & U @ p 5 x.J                                       ",
"                                      1 D.e + X.X.F G f.-.-.w.* N.*.w.5.*...O & X.O p O !.t.                                    ",
"                                      3...@ + &.F X.Y.%.=.q.%.M.M N.'.Q.7.%.*.F F H.O > ..oX1                                   ",
"                                    J B e c & G &.P.A @ -.%.5.M.M.,X'.7.%.5.u.Y.%XU $.* @ &.).                                  ",
"                                    D.5 e 5 5 G -.%._ M 5 7.8.].A.8.d.-.> s.9.*.%.+ U + A & x.t.                                ",
"                                  J G.A & G G *.-.*.s.N.].{.d.d.K.K.=.v.<.N.9.-.=.*.5 G X.O + 3.                                ",
"                                  ,.@ > 8 + Y.=.f.-.[.8.I.d.`.=.8.5.8.U.I.P.f.f.f.%.u.U 6.F & !.6                               ",
"                                1 x.@ 5 ..U %X=.9.9.d.$XI.8.P.A ^.L.U.I.K.K.].M.M.+ E G 6.H.s _.Z.                              ",
"                                J G.O + & &.`.7.N.9.[.d.u.^.2.. 4.L.<X{.U.U.[.9.9.e b.G 6.$.5 * 3.                              ",
"                                ).@ s G 8 H.`.=.c.5 / k 4.. # # 4.L.'.7.8./.v.b.b.a.5.X.X.F + & F.1                             ",
"                                3.* U &.+ 6.$.F ( T n # . # # # T L.a.a.K u b.a.a.b.K (.P.+ G s x.6                             ",
"                                a e + + V p.k v f f n T r m Z # T i.C.J. . . . . . .#X#Xv...+ * :.6                             ",
"                                a e + G | ( # n 3 , Z s.S Z Y n T i. .7 % X X X 7 ;.7 ; /.j.+ 8 } l.                            ",
"                                ,.c c O V ( # r Z Z g v . 3 Y v T ` $ 2 o o o o 2 2 o % x c.c A A.l.                            ",
"                                oXc c @ / ( , 0 n # t t 9 t g.v T ` 4 2 2 2 o o 2 2 o %  .b.c A A.J                             ",
"                                a G U &.X.( 9 S T 0 S 0 0 r M 3 T ` 4 2 2 2 o o o 2 o ; x W.G F } l.                            ",
"                                a ..8 & V ( 0 S , k 4.n 9 , M t T ` 4 o 2 2 2 2 o 7 ;.; x u.& & B t.                            ",
"                                a & * 5 * ( 0 S g p.p.p.S , Y t t ` < o 2 2 2 o 7 X X ; >.K e * B t.                            ",
"                                a * s A s ( S Z 0 p.$.S m h M 3 t ` : o o o o o ;.= X ; >.K * * } 6                             ",
"                                O.O s A s I S Z S g I , m h M i T ` : o o 7 7 7 ;.% ;.X { K e * } 6                             ",
"                                O.O * 5 & I S 0 m , k r g.W M i t ` : 2 7 o ;.7 ;.X % X { K s s } 6                             ",
"                                O.e & 5 & I P 9 s.i 3 3 Y W M i t ` : 2 o o o ;.% X ;.X { K O s } 6                             ",
"                                a * 8 5 & I P h Y i f i Y W M i t ` : o o o 2 ;.: % 7 X { K 5 O n.6                             ",
"                                a & & 5 / I d , Y t f 3 Y W M i T 0.: o 7 o o 2 o 7 7 % { K 5 e n.6                             ",
"                                R & 8 e V I d l Y t f 3 g.h M i v 0.: 7 X 7 X X 7 7 X ; { <.@ @ } 6                             ",
"                                R 8 8 * V I d l Y i f i _ h M t n 0.: X X X % X 7 7 X ; { <.A c } 6                             ",
"                                R ..8 & V I d l Y 3 3 i _ h M t n 0.J.X X X X X X X X ; { <.E > B 6                             ",
"                                R & 8 8 | I W l Y 3 3 i m h M 3 n 0.J.; = ; ; ; % % % = { <.> > B 6                             ",
"                                a * & 8 | I W l s.m m D D l g.i n 0.4 % ! w ; ; ; % ; = >.<.> p B 6                             ",
"                                a * & 8 V g W l r , W W l l _ i n >X$ ; : : ; ; % % ; = >.u > p B 6                             ",
"                                a & 8 + V 9 W D P D P D D _ m v 4.L w = ; ; ; % X ;.% = >.u > y.B 6                             ",
"                                a & + + | 9 3 i l l , , r r T f . L ! = = = = ; % X % : >.u > y.B 6                             ",
"                                a e 8 8 | g f i l h D m g T &Xk b L ! = : : = = ; ; ; : >.u > p } 1                             ",
"                                a 5 e s | 9 f h , 3 t t , p.V ( b L ! = : : = = = ; = 4 x u > p :.1                             ",
"                                a @ e e V g f i h d P d , k k n b L N : < < = : < = : 4 x u E p :.1                             ",
"                                a 5 e 5 V g 3 D d d Z Z Z 0 v # b L C 4 4 J.: : : : : 4 x u E p :.1                             ",
"                                R O e @ / g t Z 3 3 i l 9 m 9 . b L C 4 4 J.- : < : : 4 x u c p B.1                             ",
"                                R O e @ / g r P f f # # . g 9 #.b L C 4 4 J.4 : J.: < 4 x u c p B.1                             ",
"                                R O * 5 / g l P 9 0 S S k 9 0 . b L N < < 4 4 4 4 < 4 $ x u c p e.1                             ",
"                                R @ e @ V g l P s.0 g s.s.0 Z . #.L N : = < - - < - 4 $ x u E p e.1                             ",
"                                R A * 5 V g , D _ 9 # v S 9 0 . #.L C : = : 4 4 4 4 4 $ x u E p e.1                             ",
"                                R A * 5 | g , D _ h # v 0 , 0 . #.L C < < 4 4 4 4 4 $ $ x u E p e.1                             ",
"                                a c e 5 | k r D _ , f 3 0 r 9 . b ) C 4 4 4 $ 4 $ $ $ $ x u E p e.1                             ",
"                                a c 5 & | k , D _ , # t Z r 0 . S.) 1.$ $ $ $ $ w N $ $ x u > p B.1                             ",
"                                ,.E > > s k , D m , # t 0 r 9 . S.) 1.y $ $ $ - $ $ J.$  .-Xy.y.:.1                             ",
"                                ,.& G + F k , D D r . t 0 r d . b ) C $ $ $ $ $ - $ $ $  .u c 5 :.6                             ",
"                                O.& F U :Xk r P P t # t d r d # b ) C $ w $ $ $ $ $ $ w V.K j.* (.l.                            ",
"                                ,.5 + 8 V k r Z 0 t # t W i W # b ) C $ w $ $ $ w w ! q V.K O O W.J                             ",
"                                ,.5 + 8 V k r d 9 0 S Z 9 i W # b ) C $ ! w $ w w ! ! N V.K O O W.J                             ",
"                                ,.5 8 8 / 2.r d n . k 9 r 3 W # b ) C 4 ! w w w w ! N N V.K O 5 A.l.                            ",
"                                O.5 & & / 2.T d d 0 9 r v 3 h # b ) C $ w w ! w w w N 1.C.K O @ B 6                             ",
"                                O.@ * * / 2.. . n g Y M Y m d . S.) C $ w w w ! ! ! N 1.C.c.@ c :.1                             ",
"                                O.u.j.j.O 4.#.#.. . n 3 , S , . S.z.1.w w ! ! ! N N N 1.C.u c > !.                              ",
"                                }.w.w.w.5.p 2.4.#.# f f f n f . i.z.C ] ] ] ] ] ] ] ] ] x /.v.v.e.1                             ",
"                              J $Xq.q.q.q.<Xw.K ^.2.# f f f f . i.z.OX@XH H H H H T.T.T.z z z z |.J                             ",
"                              3.[ [ [ [ [ +Xq.q.7.%.A ( 3 f f . i.z.OXH H H H H Q T.Q z z z z z z E.                            ",
"                              }.@.@.@.@.R.R.R.R.[ [ R.=.f.&X2.#.i.z.@XQ Q Q Q Q Q Q Q Q z z ~.z z ;X1                           ",
"                            J =X+.h.+.+.+.o.o.o.o.@.@.@.@.*X=.u.y.0.+Xm.j j m.j j j j j j ~.~.r.r.|.Z.                          ",
"                            E. X.X.X Xh.h.h.h.+.+.+.+.o.o.o.o.o.{.*Xm.m.m.m.j j j j j j j r.r.r.r.r.XX                          ",
"                            E.~ ~ ~ ~ ~ ~ ~ ~ ~ ~ ' ' ' ' ' ' ' ' ' ^ ' ^ ^ ^ ^ ^ ^ ^ ^ ^ k.k.k.k.k.XX1                         "
};
