/* XPM */
static char *_20c1e2a009d4b76c05e6e4d56f0414aMvw812CnOF7TmaCr[] = {
/* columns rows colors chars-per-pixel */
"64 64 158 2 ",
"   c black",
".  c #F589F7",
"X  c #000308",
"o  c white",
"O  c #00050B",
"+  c #FDFFFE",
"@  c #F58AF7",
"#  c #F88BF9",
"$  c #7909FA",
"%  c #FCFEFE",
"&  c #000D21",
"*  c #000101",
"=  c #00102B",
"-  c #F587F7",
";  c #1F166D",
":  c #FA8CFA",
">  c #001329",
",  c #5D0ECE",
"<  c #000E36",
"1  c #C3CBD2",
"2  c #070924",
"3  c #181156",
"4  c #3D346D",
"5  c #3B4C69",
"6  c #001538",
"7  c #01132E",
"8  c #7C09FF",
"9  c #8A13FB",
"0  c #F4D1FE",
"q  c #2A3D5D",
"w  c #EF7CF8",
"e  c #F69EF8",
"r  c #FF8EFE",
"t  c #141151",
"y  c #C533FA",
"u  c #F384F7",
"i  c #F67DFD",
"p  c #BC70CC",
"a  c #EF77FA",
"s  c #E36AFC",
"d  c #2A2752",
"f  c #E983F1",
"g  c #334464",
"h  c #FDEDFE",
"j  c #0C0F23",
"k  c #34246B",
"l  c #640DD9",
"z  c #4610A6",
"x  c #B52AF9",
"c  c #E251FD",
"v  c #F78EF7",
"b  c #32118D",
"n  c #E570FC",
"m  c #42536E",
"M  c #FBE2FD",
"N  c #CD77D9",
"B  c #2E2955",
"V  c #F5F7FA",
"C  c #D4DADF",
"Z  c #1B1566",
"A  c #BA6ECB",
"S  c #3F356F",
"D  c #EA61FE",
"F  c #383068",
"G  c #6B4A8F",
"H  c #D76AF5",
"J  c #9C28F9",
"K  c #DE72F6",
"L  c #590BCB",
"P  c #DD4AFA",
"I  c #909BAB",
"U  c #7008EF",
"Y  c #FFE7FF",
"T  c #8D58A5",
"R  c #AB43D0",
"E  c #C976D6",
"W  c #707E92",
"Q  c #000A1A",
"!  c #9123F8",
"~  c #E35DFA",
"^  c #7A36D7",
"/  c #FAA9FB",
"(  c #4A0EB1",
")  c #FACDFB",
"_  c #6007D7",
"`  c #F8A7F9",
"'  c #CED4DB",
"]  c #C071D1",
"[  c #D2D8DE",
"{  c #BEC5CE",
"}  c #071C41",
"|  c #D13CFB",
" . c #D161FA",
".. c #F9BEFB",
"X. c #9945FB",
"o. c #E1C8FE",
"O. c #9BA3B5",
"+. c #BA48DB",
"@. c #B761CD",
"#. c #A01FF9",
"$. c #A935D4",
"%. c #7E10F8",
"&. c #AA3DF7",
"*. c #DA3EFB",
"=. c #441D8F",
"-. c #FEFBFF",
";. c #DEC6FE",
":. c #E7D6FE",
">. c #F298FB",
",. c #8F33FC",
"<. c #291A56",
"1. c #251853",
"2. c #653A90",
"3. c #F7D7FE",
"4. c #9536FE",
"5. c #4A4287",
"6. c #F1F4F6",
"7. c #112548",
"8. c #6C7890",
"9. c #E376EF",
"0. c #7B2BA7",
"q. c #C354F7",
"w. c #410AA4",
"e. c #9C47FD",
"r. c #C494FE",
"t. c #EECCFD",
"y. c #A94DF9",
"u. c #B375FC",
"i. c #9642F9",
"p. c #C872D6",
"a. c #C770D8",
"s. c #5A2F91",
"d. c #8D59A4",
"f. c #B35FCA",
"g. c #7918D6",
"h. c #BE96F3",
"j. c #EFB7FC",
"k. c #061348",
"l. c #0C1D49",
"z. c #5A1FBB",
"x. c #D0C3DC",
"c. c #ECDBFF",
"v. c #EDB0F7",
"b. c #DCC2FC",
"n. c #D4DEDE",
"m. c #5A6881",
"M. c #7C2BA7",
"N. c #9829D9",
"B. c #8B56A3",
"V. c #C564DA",
"C. c #CA56FD",
"Z. c #D6A0FC",
"A. c #AC9DD4",
"S. c #BA78FF",
"D. c #F1DCFF",
"F. c #E0C3FC",
"G. c #CB99FF",
"H. c #A99CCE",
/* pixels */
"                                                                                                                                ",
"                                                                                                                                ",
"                                                                                                                                ",
"                                                                                                                                ",
"                                                                                                                                ",
"                                                                                                                                ",
"                                                                                                                                ",
"                                      * X O O X *                 * O O O O *                                                   ",
"                                      X & = = & X                 X & 7 7 & X                                                   ",
"                                    X j B S S B j X           * X 2 3 ; ; 3 2 X *                                               ",
"                                  X Q d T ] ] T d Q X         X & t z , , z 3 & O                                               ",
"                              * X j d G N r r N G d j X   * X 2 t b l 8 8 , ; > O                                               ",
"                              X & B T N f : : f N B.d Q X X & 3 z l U 8 8 , ; > O                                               ",
"                              O = S ] r : . . # r N G d j Q 7 ; , 8 $ $ $ l b t 2 X *                                           ",
"                              O = S ] r : . . @ # f N d.d > 7 Z L 8 $ $ $ U l z 3 & O                                           ",
"                              X & B T N f @ @ . . - i V.2.k k =.g.9 %.$ $ $ 8 , ; > O                                           ",
"                              * X j d G E : # @ @ w D P $.$.$.$.y x 9 $ U $ 8 , ; > O                                           ",
"                                  X & F f.i - @ @ w ~ c c c c c P y #.9 9 9 %.l b t 2 X *                                       ",
"                                  X & k R D w @ @ u w a a a a s P | y y y x 9 U l z 3 & O                                       ",
"                              * X j 1.s.+.D w @ @ . @ @ . @ @ w ~ P *.*.*.y #.9 8 , ; > O                                       ",
"                              X & <.M.+.H w u . . . @ . - - - u w s P *.*.| y x 9 , ; > O                                       ",
"                              O > k R D i @ @ . . - - v e ` ` ` ` >.w s s n n C.! _ b t 2 X *                                   ",
"                              O = F @.i - @ @ . . - u e ) M M M M M 0 0 0 0 3.Z.4.U _ z 3 & O                                   ",
"                          * X 2 1.2.p.: # . . - - v e ..h o o o o o o + + + o :.u.4.9 , ; > O                                   ",
"                          X & <.0.+.9.# @ . . - u e ) h o o o o o o o + + + + V c.G.4., ; > O                                   ",
"                          O 7 k R D i @ @ . - v e ..h V [ { { { { ' 6.o o o o V n.H.^ ( b 3 2 X *                               ",
"                          O = 4 @.i - . . - - e ) h o C W 5 5 g g 8.[ o o o o C W g Z b ( ( 3 & O                               ",
"                          O = 4 p : # . . - - ` Y V C I q } q 5 5 m.O.[ 6.6.C I q } q 5.z.( Z 7 O                               ",
"                          O = 4 A : # . . - - ` Y [ W q } q I 1 1 O.m.8.[ C W q } g I O.5.Z k.7 O                               ",
"                          O = 4 A : # . . - - / Y { 5 < < m 1 o o 1 5 5 { 1 m < < m ' ' m 6 6 7 O                               ",
"                          O = 4 A : # . . - - / Y 1 5 < < m 1 o o 1 5 5 1 1 m < < m ' ' m 6 6 7 O                               ",
"                          O = 4 A : # . . - - / Y 1 m < < g I 1 1 I q 5 1 1 m < < g O.O.g 6 6 7 O                               ",
"                          O = 4 p : # . . - - / Y 1 5 < 6 7.g m m q } 5 1 1 m < 6 7.g g 7.6 } 7 O                               ",
"                          O = 4 @.i - . . - - e ) x.8.q 7.6 < < < } q W C C W q l.6 < k.Z Z l.7 O                               ",
"                          O 7 k R D i @ @ . - v e v.x.I q < < < < q I C 6.6.C I q < < 3 ( ( Z 7 O                               ",
"                          X & <.0.+.9.# @ . . - u ` h n.W 5 5 5 5 W [ o o o o [ W 5 m 5.z.( 3 & O                               ",
"                          * X 2 1.2.p.: # . . - u ` Y V C 1 { { { ' 6.o o o o 6.' 1 1 O.5.3 2 X *                               ",
"                              O = F @.i - . . - - e ) M 3.M -.o o o o + + + + o o -.D.A.g = X                                   ",
"                              O > k R D i @ @ . - v e >.a >.M o o o o + + o o o o c.S.^ k > O                                   ",
"                              X & <.0.+.9.@ @ . . . - a ~ s v.0 0 0 0 t.F.b.b.;.o.h.^ w.3 & O                                   ",
"                              * X 2 1.2.a.# # . . . - u a n n s s s s  .y.i.i.X.e.^ =.t 2 X *                                   ",
"                                  X & F A : # . . . @ @ @ w ~ c ~ s s  .y.,.%.U _ w.t & X                                       ",
"                                  X & F A : # . . @ @ @ v u a - j.0 0 t.o.r.,._ b t 2 X *                                       ",
"                              * X j d G E # # . @ f K K f v e ..h + + o o ;.X._ b t 2 X *                                       ",
"                              X & B T N f @ . @ @ K &.&.K e ) h -.+ + o o ;.i.U _ z 3 & O                                       ",
"                              O = 4 p r # . . @ v H ! !  .` Y + + % % + + :.u.,.9 , ; > O                                       ",
"                              X = 4 p r # . . # v H ! !  .` M + + % % + + V :.r.4.L ; > O                                       ",
"                          * X j d G E # # . @ u K q.J &.f ..h + + % % % % o o o.e._ b t 2 X *                                   ",
"                          X & B T N f @ . @ @ K &.J x  .j.h -.+ % % % % % + o ;.X.U l z 3 & O                                   ",
"                          O = S ] r # . . @ v H ! 9 x n 0 + + % % % % % % + o b.X.$ 8 , ; 7 O                                   ",
"                          O = S p : # . . # v H ! 9 x n 0 + + % % % % % % + o b.X.$ 8 , ; 7 O                                   ",
"                          O = S p r : @ # u K q.J #.| w 3.+ + % % % % % % + o ;.X.$ 8 , ; 7 O                                   ",
"                          O = S ] r : v v K &.J x | D >.M + + % % % % % % o o o.e.8 8 , ; 7 O                                   ",
"                          X & B d.a.H H H q.J #.y c a e ) h -.+ + + + + + V :.h.^ L , z 3 & O                                   ",
"                          * X j B s.^ J J J x y | c a v e ..h + + + + o o :.u.^ =.; ; 3 2 X *                                   ",
"                              X & t w.l %.#.y P P ~ w . - >...0 0 0 0 0 o.r.,.L Z 6 7 & X                                       ",
"                              * X 2 t =.N.y | P s w - @ # u a n n n n  .y.,.%.L ; 7 Q X *                                       ",
"                                  O > k R c c ~ w @ @ f E f.R $.x y y x 9 $ 8 , ; 7 O                                           ",
"                                  O = F @.i a w - # # E G F k =.g.9 9 9 $ $ 8 , ; 7 O                                           ",
"                                  O = 4 p : # @ . # r p 4 6 6 Z L $ $ $ $ U l z 3 & O                                           ",
"                                  O = 4 A : # @ . # r p 4 6 6 Z L $ $ $ $ l b t 2 X *                                           ",
"                                  O = 4 A : # . @ f E B.B 7 6 ; , $ $ $ $ , ; > O                                               ",
"                                  O = 4 A : # # # E G d j Q 7 ; , $ $ $ $ , ; > O                                               ",
"                                  O = 4 A : # # : A F & X O > ; , $ $ $ $ , ; > O                                               "
};
