/* XPM */
static char *_a1f0d23ed0b41d5b672c1d94da4d919HJi06vrKXy41rIG2[] = {
/* columns rows colors chars-per-pixel */
"64 64 256 2 ",
"   c #4CAF50",
".  c black",
"X  c #4BAF4F",
"o  c #FCFEFD",
"O  c #C8BFDE",
"+  c #F38DF3",
"@  c #B7ACD3",
"#  c #C3B7DA",
"$  c #F58CF4",
"%  c #C7BDDE",
"&  c #BFB6D9",
"*  c #CEC8E4",
"=  c #F38EF4",
"-  c #C6B9DB",
";  c #9BEBCC",
":  c #C4BBDC",
">  c #72A679",
",  c #C1DFDF",
"<  c #BCB3D7",
"1  c #CBC0DF",
"2  c #61B07E",
"3  c #8AB096",
"4  c #5AAD62",
"5  c #CABCDC",
"6  c #C0BCCF",
"7  c #CCD3E3",
"8  c #C4C8DB",
"9  c #F189F4",
"0  c #F8CEE4",
"q  c #F4C8E1",
"w  c #B1ECDA",
"e  c #FCF9FE",
"r  c #BBB0D5",
"t  c #F8D1E6",
"y  c #7930F0",
"u  c #BABADA",
"i  c #B4C0E0",
"p  c #BEC0DE",
"a  c #BEF3DE",
"s  c #AFA3CE",
"d  c #CCC2E1",
"f  c #C5B5D7",
"g  c #B7D9D8",
"h  c #736388",
"j  c #60AD81",
"k  c #9FA9B4",
"l  c #4DAF51",
"z  c #90B39C",
"x  c #BBB5CC",
"c  c #BDD3EC",
"v  c #D3CFE6",
"b  c #78BAE3",
"n  c #132443",
"m  c #6CA372",
"M  c #B9B0CA",
"N  c #87D9D6",
"B  c #BCCBE8",
"V  c #93EBC7",
"C  c #9B8EAC",
"Z  c #C5C0D6",
"A  c #5EAA85",
"S  c #5A4978",
"D  c #E6BBD8",
"F  c #88D6E0",
"G  c #D381DF",
"H  c #DD7BF2",
"J  c #ABB5C1",
"K  c #51AE55",
"L  c #8BB696",
"P  c #91B79C",
"I  c #9DBFD3",
"U  c #8DD9DE",
"Y  c #413964",
"T  c #CFAECD",
"R  c #E2C1DE",
"E  c #D6D2E9",
"W  c #CBCFE1",
"Q  c #EF84F4",
"!  c #F3D7FB",
"~  c #698393",
"^  c #BCB8C8",
"/  c #A9E9D3",
"(  c #526179",
")  c #BCC5E0",
"_  c #DDC1DF",
"`  c #EFC5DF",
"'  c #E4CAE3",
"]  c #83C9D4",
"[  c #B49AB8",
"{  c #B3B1C5",
"}  c #F192F2",
"|  c #DFE2E9",
" . c #384A65",
".. c #6CA673",
"X. c #C5C4E0",
"o. c #ACBAD4",
"O. c #D2B8D8",
"+. c #CDE5E9",
"@. c #A4C1D2",
"#. c #AD6DBF",
"$. c #ECC2DD",
"%. c #724592",
"&. c #90CDF2",
"*. c #D56FEF",
"=. c #E7BFDA",
"-. c #7C6B8D",
";. c #E68CED",
":. c #AFE8D7",
">. c #DA5CF4",
",. c #582AB7",
"<. c #F5CEFC",
"1. c #F6E3F4",
"2. c #E7ECF0",
"3. c #532BA7",
"4. c #374260",
"5. c #F4F4F8",
"6. c #7CAC84",
"7. c #6FAC77",
"8. c #243451",
"9. c #95DCE0",
"0. c #AEDEE3",
"q. c #C7ADCF",
"w. c #9BD1F1",
"e. c #B1C7E4",
"r. c #DBBEDC",
"t. c #EECEE4",
"y. c #FAD4E7",
"u. c #A5E7D0",
"i. c #DAB4D1",
"p. c #4F4071",
"a. c #D3DBEA",
"s. c #6E5787",
"d. c #7AB5AA",
"f. c #F2D3E6",
"g. c #C57BD0",
"h. c #ED7DF6",
"j. c #9161A6",
"k. c #8E7CA1",
"l. c #86BFE2",
"z. c #C6CDDE",
"x. c #8FDAC1",
"c. c #EAB1F7",
"v. c #E471F4",
"b. c #6A2FD5",
"n. c #31237C",
"m. c #CA4AF6",
"M. c #443E85",
"N. c #2F3968",
"B. c #F7C5F9",
"V. c #F4A7F4",
"C. c #8ABAB3",
"Z. c #4D4C8C",
"A. c #432592",
"S. c #1B2B49",
"D. c #B0D9F3",
"F. c #67AD6E",
"G. c #B2ACC4",
"H. c #B5CDDA",
"J. c #B1C3D6",
"K. c #9DE1DF",
"L. c #A0D5F0",
"P. c #77C7CB",
"I. c #BDF0DD",
"U. c #CA65EE",
"Y. c #9C88A6",
"T. c #C2E6E1",
"R. c #E8DBE9",
"E. c #AC4BF0",
"W. c #AA5CC1",
"Q. c #A0CCE7",
"!. c #7C5994",
"~. c #A8DED1",
"^. c #9A46EA",
"/. c #F19CF4",
"(. c #AB40F2",
"). c #8654E2",
"_. c #8633EF",
"`. c #2C256B",
"'. c #FCEDFD",
"]. c #622CCA",
"[. c #5A7086",
"{. c #985AEE",
"}. c #493099",
"|. c #783BDC",
" X c #95DFD9",
".X c #B7D2DD",
"XX c #99B1A7",
"oX c #A8CAD8",
"OX c #E0D3E7",
"+X c #C2BDDD",
"@X c #99C5D3",
"#X c #8B48B0",
"$X c #81C7F1",
"%X c #6EAE9E",
"&X c #F9CAE6",
"*X c #E584EF",
"=X c #89CAF1",
"-X c #BF54EC",
";X c #749FA3",
":X c #6F2EDF",
">X c #9839EC",
",X c #92C4BA",
"<X c #F4ADF6",
"1X c #8032E6",
"2X c #513B98",
"3X c #7E8C9C",
"4X c #E3CAFA",
"5X c #495873",
"6X c #9A6CE4",
"7X c #222859",
"8X c #8892A3",
"9X c #76B47E",
"0X c #8DA799",
"qX c #91D8D5",
"wX c #A9B5B8",
"eX c #D9C8E2",
"rX c #7ED7D6",
"tX c #E1B8D5",
"yX c #C7A7C5",
"uX c #B4B9C6",
"iX c #50307C",
"pX c #85C7DA",
"aX c #BA53DC",
"sX c #91E0C4",
"dX c #9BCDC2",
"fX c #F5B8F8",
"gX c #426A75",
"hX c #516789",
"jX c #D9BAF8",
"kX c #959DAE",
"lX c #DDC3FB",
"zX c #76879C",
"xX c #D9C1F9",
"cX c #A0B8AD",
"vX c #82B78C",
"bX c #A7B0D8",
"nX c #8C57A6",
"mX c #EEC9E0",
"MX c #CA6CDB",
"NX c #D779E2",
"BX c #5A908E",
"VX c #BE4AF6",
"CX c #B171F1",
"ZX c #353076",
"AX c #B2D6DB",
"SX c #7FB4C3",
"DX c #7DD4D7",
"FX c #AFD6F0",
"GX c #644FB8",
"HX c #B773C3",
"JX c #7DC8D2",
"KX c #5D9691",
"LX c #6D9598",
"PX c #D7A6F9",
"IX c #515B8F",
"UX c #7A6AB2",
/* pixels */
". . . . . . . . . . . .                           X l F.XX{ { x x G.k 6.4 l X                           . . . . . . . . . . . . ",
". . . . . . . . . . . .                       X K F.3 wXx : d * O & @ G.k 6.4 l X                       . . . . . . . . . . . . ",
". . . . . . . . . . . .                   X K 7.XXx & < r < - d < s s s s M J 3 4                       . . . . . . . . . . . . ",
". . . . . . . . . . . .                 X 4 3 M - O < @ < - % O & @ s s s @ % 1 wX7.l                   . . . . . . . . . . . . ",
". . . . . . . . . . . .               X 4 XX@ @ < % & r u * * * X.p & & # & & d * uX7.                  . . . . . . . . . . . . ",
". . . . . . . . . . . .             X 4 cX& @ @ @ & i i e.B 5 f O c B ) p +X< r O * J F.X               . . . . . . . . . . . . ",
". . . . . . . . . . . .             K z O : r @ @ u ) e.c B q.T 5 c c B B p < @ @ % 1 k 4 X             . . . . . . . . . . . . ",
". . . . . . . . . . . .           X 9X6 d O & < u 1 1 p B ) f q.Z B B B X.+Xu < @ @ % - 0XK             . . . . . . . . . . . . ",
". . . . . . . . . . . .         X 4 wX% % : u u p O.O.p e.J.o.o.@.@.e.* O.f i i & < # : { 7.X           . . . . . . . . . . . . ",
". . . . . . . . . . . .         X 9XZ % & & i i p # 6 J.@.I I I @.oXH.) f & i e.p +X@ @ & 0XK X         . . . . . . . . . . . . ",
". . . . . . . . . . . .         K cX* % < & i i u o.@.@XI o.i ) z.oX@XI o.p : +XX.p @ s r G...X         . . . . . . . . . . . . ",
". . . . . . . . . . . .       X 4 uXO : r bXi & r o.I @.J.X.eXOXOX.X@XI I u q.q.O * @ s @ & 0Xl         . . . . . . . . . . . . ",
". . . . . . . . . . . .       X 9X6 : & @ bXi +Xf u p * ' t.f.f.R.c Q.oXoXJ.5 1 W * @ s @ : k K         . . . . . . . . . . . . ",
". . . . . . . . . . . .       X vX: < < s s o.* eX_ ' t y.y.t f.R.a.c H..X7 a.| a.) @ @ r # k 4 X       . . . . . . . . . . . . ",
". . . . . . . . . . . .       X vX& r < @ q.O.' t.0 0 0 q 0 t t R.+.T.g , +.+.+., H.J.u & # G.F.X       . . . . . . . . . . . . ",
". . . . . . . . . . . .       X L # & f O.` 0 0 &Xq ` $.D D 0 t R.T.w :.:.:.:./ / u.~.H.u # { F.X       . . . . . . . . . . . . ",
". . . . . . . . . . . .         P O : f _ 0 0 q ` $.=.$.=.tXq f.| w ; ; ; ; ; V ; ; u..XX.% x 7.X       . . . . . . . . . . . . ",
". . . . . . . . . . . .         P * d - _ q q ` $.=.=.mXq D q f.| w sXx.sXV V V V ; / , v * Z 6.X       . . . . . . . . . . . . ",
". . . . . . . . . . . .       l P % : f r.` $.q T -.h [ $.D q f.| ~.BXgXKXx.V V V V / , W O x 7.X       . . . . . . . . . . . . ",
". . . . . . . . . . . .       l 3 < r r r.$.D yXk.S S -.[ i.q f.W ;XM.n.Z.;Xx.V V ; / g Z & G.> X       . . . . . . . . . . . . ",
". . . . . . . . . . . .       l z - : - _ =.yX-.s.g.G j.s.[ =.R C M.,.b.3. .d.V ; ; / g X.: M > X       . . . . . . . . . . . . ",
". . . . . . . . . . . .       l z : 1 1 _ T h !.g.9 + G j.s.[ k.M.,.:Xy ,.N.%X; ; ; / g 8 % M > X       . . . . . . . . . . . . ",
". . . . . . . . . . . .       l z % d 1 _ q.S !.;.= $ = G j.h 4.n.:Xy y b.}.hXd.; ; u.g 8 % M > X       . . . . . . . . . . . . ",
". . . . . . . . . . . .       l P % 1 1 _ T -.!.HX;.+ $ Q MX%.iX3._._.y y ].`.BX; ; u.g 8 % M > X       . . . . . . . . . . . . ",
". . . . . . . . . . . .       l z % O 5 r.D T h S NX$ + h.>.-XaX-XVX>X_._.b.n.[.x.; u.g 8 O M > X       . . . . . . . . . . . . ",
". . . . . . . . . . . .         z : % 5 r.D i.h iXU.h.+ 9 h.h.h.v.>.m.VX(.1X].M.~ sXu.g 8 O M > X       . . . . . . . . . . . . ",
". . . . . . . . . . . .         z : % 5 r.i.k.%.#X*.Q + $ $ + $ Q v.>.m.m.(.1XA.gXx.u.g 8 1 M > X       . . . . . . . . . . . . ",
". . . . . . . . . . . .         3 - % 5 _ T S %.*.9 $ $ + } V.<X<XV.;.H H *.>X3.Z.%Xx.g 8 d M > X       . . . . . . . . . . . . ",
". . . . . . . . . . . .         3 # : - O.[ S nXQ + + + = V.! '.'.'.1.1.1.4X6X|.3. .C.g z.* x > X       . . . . . . . . . . . . ",
". . . . . . . . . . . .         3 # - - [ s.#XMX+ + + = V.! 5.e e e o o o 5.xX6X3.N.d.g z.* 6 > X       . . . . . . . . . . . . ",
". . . . . . . . . . . .         3 # # # C Y W.h.$ + = V.! 2.k 3X3XkX| o o 2.k Z.A.}.[.k z.v 6 > X       . . . . . . . . . . . . ",
". . . . . . . . . . . .         3 - # f C Y #.+ + + } B.| k  .4.( [.k | 2.k  .4.Z.}.7X~ z.v 6 > X       . . . . . . . . . . . . ",
". . . . . . . . . . . .         3 : # f C Y #.= + + } B.6  .S.zX| z.[.kXuX4.S.zXkX7Xn ~ z.E Z > X       . . . . . . . . . . . . ",
". . . . . . . . . . . .         3 - # # C Y #.= + + } B.J 8.n 8X5.a.( 8XJ 8.n 8Xk 8.n ~ W E Z > X       . . . . . . . . . . . . ",
". . . . . . . . . . . .         3 # # f Y.Y #.= + $ } B.{ 8.n 5X3X~ 4.8XJ 8.n 5X( S.n ~ W E Z > X       . . . . . . . . . . . . ",
". . . . . . . . . . . .       X 3 # # f Y.Y W.Q + + = fXf ( S.n n S.5XJ 8 ( S.n 7X`.7X~ W E 6 > X       . . . . . . . . . . . . ",
". . . . . . . . . . . .       X L % - f C p.#X*.$ = + } c.Z ( 8.8. .J 5.5.8 ( 8.ZX}.N.3X7 E 6 ..X       . . . . . . . . . . . . ",
". . . . . . . . . . . .       X L O 5 - T C %.W.9 $ + + <X1.Z { J 6 2.o o 5.8 { k.M.zX@.7 v 6 ..X       . . . . . . . . . . . . ",
". . . . . . . . . . . .       X L O O - R i.S %.H 9 $ + /.fXc.<.e o o o o o e xXUX4.C., 7 v 6 ..X       . . . . . . . . . . . . ",
". . . . . . . . . . . .       X L O 1 5 R tXh %.W.*X$ $ = 9 v./.<.<.<.4XlXlXjX6X2X( ,X, 7 v ^ ..X       . . . . . . . . . . . . ",
". . . . . . . . . . . .       X L O 1 5 R ` T h %.G = + = + Q H v.H H CX{.^.|.2XhX,X:., 7 v ^ m X       . . . . . . . . . . . . ",
". . . . . . . . . . . .       X L O O 5 R ` tXh p.G = + + 9 $ Q } fXB.jXG |.A.hXC./ w , 7 v ^ m X       . . . . . . . . . . . . ",
". . . . . . . . . . . .       X L O O 5 R D Y.!.j.*X= = H U.*XV.<.e o o jX|.3.IXd./ w , 7 v ^ m X       . . . . . . . . . . . . ",
". . . . . . . . . . . .       X L 1 O 5 R i.S !.;.+ $ = *.^.*.B.e o o o 4X{.|.A.gX~.w , 7 v ^ m X       . . . . . . . . . . . . ",
". . . . . . . . . . . .         P 1 O - r.yXS nX+ = + 9 U.^.H <.e o o o 5.xX).A.5XdX:., 7 v ^ m X       . . . . . . . . . . . . ",
". . . . . . . . . . . .         P d O - [ h j.g.+ $ 9 U.E.-Xc.'.o o o o o ! {.].2X[.dX, 7 v ^ m X       . . . . . . . . . . . . ",
". . . . . . . . . . . .         P d O - C Y #.= $ $ 9 -X>XU.<.o o o o o o ! {.y ,.N.C., 7 E ^ m X       . . . . . . . . . . . . ",
". . . . . . . . . . . .         P * * O C Y #.= $ 9 H E.(.*.! o o o o o o ! {.y ,.N.C.T.a.E 6 m X       . . . . . . . . . . . . ",
". . . . . . . . . . . .         3 : : # C p.#.*X*XH E.(.>.;.! e o o o o e lX).b.3. .,XT.7 * x m X       . . . . . . . . . . . . ",
". . . . . . . . . . . .         3 < r r q.Y.s.#X^.E.(.m.>.9 <X! e e e e 4X6X}.n.Z.;X~., 8 O x > X       . . . . . . . . . . . . ",
". . . . . . . . . . . .         z # < f R D k.2X,.>Xm.>.v.9 } /.c.c.c.PXCXb.`. .;X:.I., 8 O 6 6.X       . . . . . . . . . . . . ",
". . . . . . . . . . . .         z : # # R q i.h iXaX>.v.9 ;.g.W.aX-XVX^.1Xb.`.~ :.a I., 8 O Z 6.X       . . . . . . . . . . . . ",
". . . . . . . . . . . .         z : # - ' q D -.p.NXQ 9 = G S `.A.1X_.y y ].ZXLXI.a I., 8 1 6 6.X       . . . . . . . . . . . . ",
". . . . . . . . . . . .         z % - 5 ' 0 =.-.p.G = + + g.Y n n.:Xy y ].M.~ dXa a a , 8 d x > X       . . . . . . . . . . . . ",
". . . . . . . . . . . .       l z O : 5 ' y.mX-.p.G = + G j.h 4.n.:Xy y ,.N.C.a a a a +.W * x ..X       . . . . . . . . . . . . ",
". . . . . . . . . . . .       K XXX.p 1 ' y.f.Y.s.;././.g.h [ k.Z.).).).GX( ,Xa a a I.T.7 * { m X       . . . . . . . . . . . . ",
". . . . . . . . . . . .     X 4 J c c c E OXf.t.mX&X&X&X` ` t R.| , 0.0.0.~.:.w w w :.0.AX.XJ ..X       . . . . . . . . . . . . ",
". . . . . . . . . . . .     X 2 Q.D.D.D.D.c W v OXt.0 0 t t y.1.2.T.K.K. XK.K. X X X XqXqXqX] j         . . . . . . . . . . . . ",
". . . . . . . . . . . .     l d.w.L.L.L.L.D.FXc B * eXmX0 t y.1.2.0.9.9.9.9.9.U U N N N N N N %XK       . . . . . . . . . . . . ",
". . . . . . . . . . . .   X 4 SX&.&.&.&.w.w.w.w.w.w.e.) * ' f.1.2.0.U U U U U U U U N N N rXN d.4       . . . . . . . . . . . . ",
". . . . . . . . . . . .     A b $X$X$X$X=X=X=X=X&.&.&.Q.Q.e.B a.+.L.F F F F F F F F F F rXrXDXP.j       . . . . . . . . . . . . ",
". . . . . . . . . . . .   l A b b b b b b b b l.b l.l.l.l.l.l.I @XpXpXpX] ] ] ] ] ] ] JXP.P.P.P.%Xl     . . . . . . . . . . . . ",
". . . . . . . . . . . .     4 A A A A A A A j A j j j j j j j j j 2 2 2 2 2 2 2 2 2 2 2 2 2 2 2 4 l     . . . . . . . . . . . . ",
". . . . . . . . . . . .           X X X X X X X X X X X X X X X X X X X X X X X X X X       X X         . . . . . . . . . . . . "
};
