/* XPM */
static char *_9c8d501d2c44f53d35fef798ed645e9fPj1NIW3Y8spczeP[] = {
/* columns rows colors chars-per-pixel */
"64 64 35 1 ",
"  c #5BAA50",
". c black",
"X c #5AA950",
"o c #59A850",
"O c #59A750",
"+ c #4A9253",
"@ c #58A550",
"# c #56A251",
"$ c #4D9752",
"% c #539F51",
"& c #509A51",
"* c #458753",
"= c #818A89",
"- c #5C9B55",
"; c #485553",
": c #457C52",
"> c #646F6D",
", c #436F50",
"< c #3F5E4E",
"1 c #627D66",
"2 c #89918D",
"3 c #628962",
"4 c #777F7E",
"5 c #5C6464",
"6 c #5E915A",
"7 c #A9AFA6",
"8 c #9CA39B",
"9 c #404D4A",
"0 c #6F7B76",
"q c #3F674F",
"w c #929A93",
"e c #59835B",
"r c #4F5C58",
"t c #79847E",
"y c #7B917B",
/* pixels */
"................................................................",
"                                                     o####OX    ",
"                                                    X@$++$#o    ",
"                                                   o@%+**+&#OX  ",
"                                                   #&+$$$$+$#o  ",
"                                                   #++%@@%++%O  ",
"                                                   @&&@X @%&#o  ",
"                                                   XOOX  XoOX   ",
"                                                                ",
"                                                                ",
"                                                                ",
"            XoOOOo                                              ",
"           X@%$$$%o                                             ",
"          Xo#+***$@X                                            ",
"         X@%$++++$&%X                                           ",
"         X#$+$##%$+&o                                           ",
"         X@&$%oX@&$%o                                           ",
"          o@@O Xo@@@X                                           ",
"          XXXX  XXXXX                                           ",
"                                                                ",
"                                                                ",
"                                      XXooooX                   ",
"                                      X#%&&%@                   ",
"                                    XX@&+*++%OX                 ",
"                                    o#&$++++$%@                 ",
"                                    O%++&%%$++#X                ",
"                                    o%$$#oO%$$#X                ",
"                                    X@##O X@##O                 ",
"                                     XXX   XXX                  ",
"                                                                ",
"                                                                ",
"                                                                ",
"                                                                ",
"        XooooX                                                  ",
"        O#---#X                                                 ",
"      Xo-61136@X                           XoOOOOOOoX           ",
"     X@-63t4t3-#o                         X#--------@X          ",
"      %33288wy36O                       XXO-31111113-OXX        ",
"     o-1>2778t>e@                       X@-61>>>>>>16-@X        ",
"     O+,r>t=45r:#    XXooXX            XO-310444444413-OX       ",
"     O$,;r555;<:#   X#---#O           X@-610t======t016-@X      ",
"     o&:q;99;<,*@   O6e1e6@           O-3104========4013-O      ",
"     X#+:<999,*&O o@-30003-@oX      XO%610=2========2=016#OX    ",
"     X@%+:qq,*$#oX@63y888y36@X      o%+e>4w82======28w4>e+%o    ",
"      XO%+*:*$@oXX#e>=777=>e#X      O&*:>4w8w222222w880>:*&O    ",
"        @%&$&#o  X-:r>=2=>r:%X      O&*,r54w87777778w45r,*&O    ",
"        XoOOOo   X&:9r555r;,%X      O&*,;;548777777845;<,*%o    ",
"                 X%*q;;;;;q*%X      o#$*,<;5422222245;<,*&@X    ",
"        o##-#@X  X#+:q999q:+@X      Xo@$*,<;5>>5>>55;;,*&@oX    ",
"        #63e3-O   @%+:q<q:+%OX        o#$*,<;;;;;;;;<,*&#o      ",
"     XO#-30006-@X Xo#+*:*+#OX          o@&*,;999999<,*&@o       ",
"     X#63ywwwy3-O   o%$$$%O             o#$*,<<<<<<,*$#X        ",
"     o-e02878t16O   X@@@@OX             Xo#$*::::::*$@oo@@@@oX  ",
"     O$,5022=>5e@                         o#&++$+$+&#o @&$+$#o  ",
"     O+,;5>>5r<:#                          o@@@@@@@@oo@%+**+&#OX",
"     X$:<;;;;<q*@                                    @&$+$+++$#o",
"     o%*,<99;q:+O                 Xo@@@Oo            #++&##%++%O",
"     X@&*,<<q:+%o                 o#&$$&@            @&&#oX@&&#o",
"      o@&*:::+#OX               XO#&+**+%@o          o@@oX o@@OX",
"        O&++$%o                 o#&$++++$&@                     ",
"        o@##@OX                 O&++%#%&++#X                    ",
"          XX                    o%$&@Xo%$&@X                    ",
"................................................................",
"................................................................"
};
