/* XPM */
static char *_1fe5fbfd44a4c3beec7a876fa62ff3e3dtPh5lvzCqLD1o3[] = {
/* columns rows colors chars-per-pixel */
"64 64 10 1 ",
"  c #4892DA",
". c #3561B6",
"X c #396EBF",
"o c #4386D1",
"O c black",
"+ c #458DD6",
"@ c #3E7AC8",
"# c #5097DC",
"$ c #85B7E7",
"% c #61A1DF",
/* pixels */
"OOOOOOOOOOOOOOOOOOOOOOOOOOOOOOOOOOOOOOOOOOOOOOOOOOOOOOOOOOOOOOOO",
"$##############################################################%",
"$#                                                             %",
"$#         +++                                                 %",
"$#       +o@@@o                                                %",
"$#       oX..X@+                            ++++++++           %",
"$#     +o@X...X@o                          +@@@@@@@@+          %",
"$#     o@......Xo                         +oX......Xo+         %",
"$#     +X......Xo                        +@XX.......X@+        %",
"$#     o@......Xo     ++++              +oX..........Xo+       %",
"$#     +o@X...X@+    +o@@@o            +@XX...........X@+      %",
"$#       oX..X@+    +oX..X@+           +X..............Xo      %",
"$#       +o@@@+    +oXX...X@o          oX..............Xo      %",
"$#         + +     +X......Xo          oX..............Xo      %",
"$#                 oX......Xo          oX..............Xo      %",
"$#                 +@......Xo          +X..............Xo      %",
"$#                 +o@X...X@+          +o@X...........@@+      %",
"$#        ++++       oX..X@+            +oX..........Xo+       %",
"$#       +@@@@o      +o@@o+              +o@X.......@o+        %",
"$#      +oX..X@+        +                 +oXX.X..XXo+         %",
"$#     +@XX...X@o                          +o@@@@@@o+          %",
"$#     +X......Xo                                  +    ++++   %",
"$#     +X......Xo                                      +@@X@+  %",
"$#     +@......Xo                                     +oXXXXo+ %",
"$#     +o@X...@o+                                    +@@@@@@@@o%",
"$#       o@X.Xo+                    ++++             +XXo  oXXo%",
"$#       +o@@o+                    +@XX@o            +oo+  +oo+%",
"$#           +                    +oXXXX@+            +      + %",
"$#                               +@@@@@@@@o                    %",
"$#                               o@Xo  o@Xo                    %",
"$#                               +oo+  +oo+                    %",
"$#                                                             %",
"$#                                                             %",
"$#                                                             %",
"$#                                                             %",
"$#      +oooooooooooo++                               +oo++    %",
"$#     +@XXXXXXXXXXXX@o                              +@XX@o    %",
"$#    +oX............X@oo++           +oo++         +oXXXX@+   %",
"$#   +@X..............XXX@o          +@XX@o        +@X@oo@@@o  %",
"$#  +oX..................X@o+       +@X..X@o+      o@Xo  o@@o  %",
"$# +@X....................X@o      +@X....X@o      +oo+  +oo+  %",
"$# +X.......................@o+    oX......Xo                  %",
"$# +X.......................X@o    oX......Xo                  %",
"$ +oX........................Xo    +@X....XXo                  %",
"$ @X..........................o    +o@X..X@o+                  %",
"$ X..........................Xo      +@XXXo       +ooooo+      %",
"$+X..........................Xo      +oooo+      +@XXXX@o      %",
"$ X...........................o                 +@X....X@o+    %",
"$+X..........................Xo                +@X......X@o    %",
"$ X...........................o              ++@X........X@o+  %",
"$+X..........................Xo              +@X..........X@o  %",
"$ @X..........................o              oX............Xo  %",
"$ +oX........................Xo              oX............Xo  %",
"$# +@X......................XXo              o@X...........@o  %",
"$#  +oX....................X@o+               +@X........X@o+  %",
"$#   +@X..................XXo       oooo+      +@X......X@o    %",
"$#    +oX................X@o+      +@XXXo       o@X....X@o+    %",
"$#     +@XXXXX........XXXXo      +o@@XX@@o+      +@XXXX@o      %",
"$#      +oooo@X......X@ooo+      +@X@oooX@o       oooooo+      %",
"$#           +@XXXXXXXo          +@@o  +@@o                    %",
"$#            +oooooo++           +++   +++                    %",
"$#                                                             %",
"OOOOOOOOOOOOOOOOOOOOOOOOOOOOOOOOOOOOOOOOOOOOOOOOOOOOOOOOOOOOOOOO",
"OOOOOOOOOOOOOOOOOOOOOOOOOOOOOOOOOOOOOOOOOOOOOOOOOOOOOOOOOOOOOOOO"
};
